src/lib/packages/icons/src/assets/filled/calculator.svg

<svg width="24" height="24" viewBox="0 0 24 24" fill="none" xmlns="http://www.w3.org/2000/svg">
<path d="M17 3H7C5 3 4 4 4 6V18C4 20 5 21 7 21H17C19 21 20 20 20 18V6C20 4 19 3 17 3ZM8 18C7.448 18 7 17.552 7 17C7 16.448 7.448 16 8 16C8.552 16 9 16.448 9 17C9 17.552 8.552 18 8 18ZM8 15C7.448 15 7 14.552 7 14C7 13.448 7.448 13 8 13C8.552 13 9 13.448 9 14C9 14.552 8.552 15 8 15ZM12 18C11.448 18 11 17.552 11 17C11 16.448 11.448 16 12 16C12.552 16 13 16.448 13 17C13 17.552 12.552 18 12 18ZM12 15C11.448 15 11 14.552 11 14C11 13.448 11.448 13 12 13C12.552 13 13 13.448 13 14C13 14.552 12.552 15 12 15ZM16 18C15.448 18 15 17.552 15 17C15 16.448 15.448 16 16 16C16.552 16 17 16.448 17 17C17 17.552 16.552 18 16 18ZM16 15C15.448 15 15 14.552 15 14C15 13.448 15.448 13 16 13C16.552 13 17 13.448 17 14C17 14.552 16.552 15 16 15ZM17 8.5C17 9.5 16.5 10 15.5 10H8.5C7.5 10 7 9.5 7 8.5V7.5C7 6.5 7.5 6 8.5 6H15.5C16.5 6 17 6.5 17 7.5V8.5Z" fill="currentColor"/>
</svg>

<svg xmlns="http://www.w3.org/2000/svg" width="24" height="24" fill="none"><path fill="currentColor" d="M17 3H7C5 3 4 4 4 6v12c0 2 1 3 3 3h10c2 0 3-1 3-3V6c0-2-1-3-3-3ZM8 18a1 1 0 1 1 0-2 1 1 0 0 1 0 2Zm0-3a1 1 0 1 1 0-2 1 1 0 0 1 0 2Zm4 3a1 1 0 1 1 0-2 1 1 0 0 1 0 2Zm0-3a1 1 0 1 1 0-2 1 1 0 0 1 0 2Zm4 3a1 1 0 1 1 0-2 1 1 0 0 1 0 2Zm0-3a1 1 0 1 1 0-2 1 1 0 0 1 0 2Zm1-6.5c0 1-.5 1.5-1.5 1.5h-7C7.5 10 7 9.5 7 8.5v-1C7 6.5 7.5 6 8.5 6h7c1 0 1.5.5 1.5 1.5v1Z"/></svg>
